X: 201
T: March in Judas Macchabeus
B: C. & S. Thompson, "The Compleat Tutor for the Fife" c.1760 p.20 #1
S: http://imslp.org/wiki/The_Compleat_Tutor_for_the_Fife_(Anonymous)
Z: 2014 John Chambers <jc:trillian.mit.edu>
M: C
L: 1/8
K: G
% - - - - - - - - - - - - - - - - - - - - - - - - -
|:\
GFGA G2A2 | TB6 Ac | TB6 Ac | B6 Ac |\
Bdce d2cB | A2Bc d2c2 | Bdce d2cB | A2Bc d2c2 |
B2^cd e2d2 | ^cedf e2f2 | g2fe f2g2 | Te4 d4 ::\
d^cde d2e2 | Tf6 eg | Tf6 eg | Tf4 (f3e/f/) |
g2f2 e2d2 | ^c4 f4 | e2d^c d2e2 | T^c4 B4 |\
edef e2f2 | g6 B2 | cBcd c2d2 | Te6 d=f |
Te6 (d/e/=f) | Te6 d2 | egfa g2fe | d2ef g2f2 |\
e2fg a2g2 | f2e2 d2e2 | c2BA B2c2 | TA4 G4 :|
% - - - - - - - - - - - - - - - - - - - - - - - - -
